X:1
T:Dunfermling, CM
T:Dunfermling, CM
T:Thomas Ravenscroft, 1621
T:Public Domain Courtesy of the Cyber Hymnal™
C:Thomas Ravenscroft, 1621
Z:Public Domain
Z:Courtesy of the Cyber Hymnal™
%%score ( 1 2 ) ( 3 4 )
L:1/8
Q:1/4=115
M:none
K:F
V:1 treble 
V:2 treble 
V:3 bass 
V:4 bass 
V:1
 [CF]4"^Tune in tenor" A2 (z [Cc]2) [FB]2 [FA]2 [EG]2 F4 x2 | [Fc]4 B3 z G3 (z G) [EG]4 | %2
 [FA]4 c2 (z B2) (z [DG]2) [CF]2 [CE]4 x | [CF]4 (DE) [CF]2 G3 (z G) [CA]8 |] %4
V:2
 x4 C3 (c2 C) x7 F4 | x4 F2 (A2 F) E2 D2 x4 | x4 F3 (A2 F) F3 (A2 E) x3 | x4 B,2 x D2 C2 x10 |] %4
V:3
 [F,,F,]4 F,2 [E,G,]2 [F,A,]2 [D,B,]2 C2 (z [F,A,]4) x2 | %1
 [F,A,]4 [B,,D]2 [F,C]2 [C,C]2 [G,=B,]2 [C,C]4 x | %2
 [F,C]4 A,2 (z [B,,D]2) [F,,C]2 [G,,B,]2 A,2 [C,G,]4 | %3
 [F,,A,]4 [G,,G,]2 [A,,F,]2 [B,,F,]2 [C,E,]2 [F,,F,]8 x |] %4
V:4
 x4 F,2 x4 C,3 (C2 C,) x5 | x17 | x4 F,3 (C2 F,) x5 (A,,B,,) x2 | x21 |] %4

